X: 87
T:Maple Sugar
R:Reel
C:Ward Allen
S:Nancy Roach book
Z:entered by alf.warnock@rogers.com
M:2/4
L:1/8
K:A
Acd|:"A"e2e>f|edcB|c2c>d|cAdc|
"E7"cBBc|d2c>B|"A"dccB|cAcd|
e2e>f|edcB|c2c>d|cAdc|
"E7"cBBc|d2c>B|"A Fine"A2A>B|[1 A2CD|E2E>F|
ECEA|c2c>B|AEFE|"E7"B2B>c|
BGFG|"A"A2GF|ECCF|E2E>F|
ECEA|c2cB|AEFE|"E7"B2B>c|
BGFG|"A"A2A>B|A2ce:|[2 A2 G>A|
K:E
"E"B2B>c|BGBe|g2g>f|eBcB|
"B7"f2f>g|fdcd|"E"e2dc|BGAc|
B2B>c|BGBe|g2g>f|eBcB|
"B7"f2f>g|fdcd|"E"e2e>f|"DC al Fine"eAcd:|

